X:21     
T:Jenny Dang The Weaver
C:Trad
O:Scotland
R:reel
Q:1/4=210 
M:4/4 
L:1/8 
K:D
f |: d3/A/ A/A/A AFAB | d3/A/ A/A/A f2 ef | d3/B/ B/B/B BABd |
AB de faef :| de fd efge | de fd e2 dB | de fd efge |
a3/A/ A/A/A f2 ef | de fd efge | de fd e2 dB | de fd efge |
a3/A/ A/A/A fef z |]
